svg/emoji_u1f509.svg

<svg enable-background="new 0 0 128 128" viewBox="0 0 128 128" xmlns="http://www.w3.org/2000/svg"><radialGradient id="c" cx="100" cy="15.906" r="106.76" gradientTransform="matrix(1 0 0 1.0016 0 -.1007)" gradientUnits="userSpaceOnUse"><stop stop-color="#FFB74D" offset="0"/><stop stop-color="#FEB449" offset=".2212"/><stop stop-color="#FDAA3C" offset=".4534"/><stop stop-color="#FA9A27" offset=".6907"/><stop stop-color="#F6840A" offset=".9301"/><stop stop-color="#F57C00" offset="1"/></radialGradient><path d="m116 63.81c0-18.07-12.22-33.34-28.81-37.96-1.27-0.35-2.52 0.62-2.52 1.94v8.41c0 0.83 0.51 1.59 1.28 1.87 10.51 3.81 18.05 13.91 18.05 25.74s-7.54 21.93-18.05 25.74c-0.78 0.28-1.28 1.04-1.28 1.87v8.41c0 1.32 1.25 2.29 2.52 1.94 16.59-4.62 28.81-19.89 28.81-37.96z" fill="url(#c)"/><g opacity=".2"><path d="m87.67 29.12c14.98 4.77 25.33 18.85 25.33 34.69s-10.35 29.91-25.33 34.69v-6.39c11.59-4.53 19.33-15.81 19.33-28.3s-7.74-23.77-19.33-28.3v-6.39m-1.01-3.35c-1.07 0-1.99 0.88-1.99 2.01v8.41c0 0.83 0.51 1.59 1.28 1.87 10.51 3.82 18.05 13.92 18.05 25.75s-7.54 21.93-18.05 25.74c-0.78 0.28-1.28 1.04-1.28 1.87v8.41c0 1.13 0.93 2.01 1.99 2.01 0.17 0 0.35-0.02 0.53-0.07 16.59-4.62 28.81-19.89 28.81-37.96s-12.22-33.34-28.81-37.96c-0.18-0.05-0.36-0.08-0.53-0.08z" fill="#424242"/></g><radialGradient id="b" cx="27.167" cy="37.739" r="64.296" gradientTransform="matrix(1 0 0 1.0016 0 -.1007)" gradientUnits="userSpaceOnUse"><stop stop-color="#64B5F6" offset="0"/><stop stop-color="#5FB2F5" offset=".1869"/><stop stop-color="#51A9F1" offset=".4057"/><stop stop-color="#3A9AEC" offset=".6394"/><stop stop-color="#1E88E5" offset=".8495"/><stop stop-color="#1E88E5" offset="1"/></radialGradient><path d="M44,92.04H16c-2.21,0-4-1.79-4-4.01V39.96c0-2.21,1.79-4.01,4-4.01h28V92.04z" fill="url(#b)"/><rect x="20" y="35.95" width="4" height="56.09" fill="#1E88E5"/><radialGradient id="a" cx="66" cy="8.656" r="105.05" gradientTransform="matrix(1 0 0 1.0016 0 -.1007)" gradientUnits="userSpaceOnUse"><stop stop-color="#BBDEFB" offset="0"/><stop stop-color="#B3DAFB" offset=".1183"/><stop stop-color="#9ED0FA" offset=".2989"/><stop stop-color="#7BC0F8" offset=".5193"/><stop stop-color="#4CAAF5" offset=".769"/><stop stop-color="#42A5F5" offset=".8153"/><stop stop-color="#2196F3" offset="1"/></radialGradient><path d="m64.8 6.26c-19.78 21.76-32.8 29.69-32.8 29.69v56.09s13.11 8.01 32.81 29.71c3.82 4.2 11.19 2.16 11.19-3.29v-108.94c0-5.46-7.37-7.47-11.2-3.26z" fill="url(#a)"/><g opacity=".2"><path d="m69.93 7c1.06 0 3.07 0.53 3.07 2.53v108.94c0 1.86-1.85 2.54-3.09 2.54-0.65 0-1.88-0.16-2.88-1.26-19.76-21.78-32.92-29.93-33.47-30.27l-0.72-0.44h-16.84c-0.55 0-1-0.45-1-1.01v-48.07c0-0.55 0.45-1.01 1-1.01h16.84l0.72-0.44c0.55-0.33 13.61-8.4 33.46-30.24 1.01-1.1 2.26-1.27 2.91-1.27m0-3c-1.83 0-3.71 0.71-5.12 2.26-19.79 21.76-32.81 29.69-32.81 29.69h-16c-2.21 0-4 1.79-4 4.01v48.08c0 2.21 1.79 4.01 4 4.01h16s13.11 8.01 32.81 29.71c1.4 1.54 3.28 2.25 5.1 2.25 3.13 0 6.09-2.08 6.09-5.54v-108.94c0-3.45-2.94-5.53-6.07-5.53z" fill="#424242"/></g></svg>

<svg width="128" height="128" style="enable-background:new 0 0 128 128;" xmlns="http://www.w3.org/2000/svg" xmlns:xlink="http://www.w3.org/1999/xlink">
  <g>
    <radialGradient id="SVGID_1_" cx="100.0003" cy="15.906" gradientTransform="matrix(1 0 0 1.0016 0 -0.1007)" gradientUnits="userSpaceOnUse" r="106.7569">
      <stop offset="0" style="stop-color:#FFB74D"/>
      <stop offset="0.2212" style="stop-color:#FEB449"/>
      <stop offset="0.4534" style="stop-color:#FDAA3C"/>
      <stop offset="0.6907" style="stop-color:#FA9A27"/>
      <stop offset="0.9301" style="stop-color:#F6840A"/>
      <stop offset="1" style="stop-color:#F57C00"/>
    </radialGradient>
    <path d="M116,63.81c0-18.07-12.22-33.34-28.81-37.96c-1.27-0.35-2.52,0.62-2.52,1.94v8.41 c0,0.83,0.51,1.59,1.28,1.87C96.46,41.88,104,51.98,104,63.81c0,11.83-7.54,21.93-18.05,25.74c-0.78,0.28-1.28,1.04-1.28,1.87v8.41 c0,1.32,1.25,2.29,2.52,1.94C103.78,97.15,116,81.88,116,63.81z" style="fill:url(#SVGID_1_);"/>
  </g>
  <g style="opacity:0.2;">
    <path d="M87.67,29.12C102.65,33.89,113,47.97,113,63.81c0,15.84-10.35,29.91-25.33,34.69v-6.39 C99.26,87.58,107,76.3,107,63.81c0-12.49-7.74-23.77-19.33-28.3V29.12 M86.66,25.77c-1.07,0-1.99,0.88-1.99,2.01v8.41 c0,0.83,0.51,1.59,1.28,1.87C96.46,41.88,104,51.98,104,63.81c0,11.83-7.54,21.93-18.05,25.74c-0.78,0.28-1.28,1.04-1.28,1.87 v8.41c0,1.13,0.93,2.01,1.99,2.01c0.17,0,0.35-0.02,0.53-0.07C103.78,97.15,116,81.88,116,63.81s-12.22-33.34-28.81-37.96 C87.01,25.8,86.83,25.77,86.66,25.77L86.66,25.77z" style="fill:#424242;"/>
  </g>
  <radialGradient id="SVGID_2_" cx="27.1667" cy="37.7393" gradientTransform="matrix(1 0 0 1.0016 0 -0.1007)" gradientUnits="userSpaceOnUse" r="64.2964">
    <stop offset="0" style="stop-color:#64B5F6"/>
    <stop offset="0.1869" style="stop-color:#5FB2F5"/>
    <stop offset="0.4057" style="stop-color:#51A9F1"/>
    <stop offset="0.6394" style="stop-color:#3A9AEC"/>
    <stop offset="0.8495" style="stop-color:#1E88E5"/>
    <stop offset="1" style="stop-color:#1E88E5"/>
  </radialGradient>
  <path d="M44,92.04H16c-2.21,0-4-1.79-4-4.01V39.96c0-2.21,1.79-4.01,4-4.01h28V92.04z" style="fill:url(#SVGID_2_);"/>
  <rect height="56.09" style="fill:#1E88E5;" width="4" x="20" y="35.95"/>
  <radialGradient id="SVGID_3_" cx="66" cy="8.656" gradientTransform="matrix(1 0 0 1.0016 0 -0.1007)" gradientUnits="userSpaceOnUse" r="105.0515">
    <stop offset="0" style="stop-color:#BBDEFB"/>
    <stop offset="0.1183" style="stop-color:#B3DAFB"/>
    <stop offset="0.2989" style="stop-color:#9ED0FA"/>
    <stop offset="0.5193" style="stop-color:#7BC0F8"/>
    <stop offset="0.769" style="stop-color:#4CAAF5"/>
    <stop offset="0.8153" style="stop-color:#42A5F5"/>
    <stop offset="1" style="stop-color:#2196F3"/>
  </radialGradient>
  <path d="M64.8,6.26C45.02,28.02,32,35.95,32,35.95v56.09c0,0,13.11,8.01,32.81,29.71 c3.82,4.2,11.19,2.16,11.19-3.29c0-26.41,0-82.45,0-108.94C76,4.06,68.63,2.05,64.8,6.26z" style="fill:url(#SVGID_3_);"/>
  <g style="opacity:0.2;">
    <path d="M69.93,7C70.99,7,73,7.53,73,9.53v108.94c0,1.86-1.85,2.54-3.09,2.54c-0.65,0-1.88-0.16-2.88-1.26 C47.27,97.97,34.11,89.82,33.56,89.48l-0.72-0.44H32H16c-0.55,0-1-0.45-1-1.01V39.96c0-0.55,0.45-1.01,1-1.01h16h0.84l0.72-0.44 c0.55-0.33,13.61-8.4,33.46-30.24C68.03,7.17,69.28,7,69.93,7 M69.93,4c-1.83,0-3.71,0.71-5.12,2.26C45.02,28.02,32,35.95,32,35.95 H16c-2.21,0-4,1.79-4,4.01v48.08c0,2.21,1.79,4.01,4,4.01h16c0,0,13.11,8.01,32.81,29.71c1.4,1.54,3.28,2.25,5.1,2.25 c3.13,0,6.09-2.08,6.09-5.54c0-26.41,0-82.45,0-108.94C76,6.08,73.06,4,69.93,4L69.93,4z" style="fill:#424242;"/>
  </g>
</svg>
